X: 9
I: linebreak $
T: Ly Bens Distonys
C: 
T: for two
P: ABBC or ABC
M: 6/8
L: 1/8
K: G major
P: A
"G"B3 "D"A2B | "C"c2B "D"A2G | "G"B3 "D"A2B | "C"c2A "G"G3 || 
P: B
"G"B2c "D"d3 | "C"e3 "D"d3 | 
"G"g3 "D"d3 | "C"e3 "D"d3 | "G"B2c "D"d3 | "C"e3 "D"d3 | "^Repeat B for 'long' version""C"c2B GA2 | "G"G6 || 
P: C
"G"B2B "D"A2B | "C"c2B "D"A2G | "G"B2B "D"A2B | "C"c2A "G"G3 |]

